Hatter-kde-dark/actions/24/black_sum.svg

<?xml version="1.0" encoding="UTF-8"?>
<svg viewBox="0 0 24 24" xmlns="http://www.w3.org/2000/svg">
 <defs id="defs3051">
  <style id="current-color-scheme" type="text/css">.ColorScheme-Text {
        color:#dedede;
      }</style>
 </defs>
 <g transform="translate(1,1)">
  <path class="ColorScheme-Text" d="m3 3 4 8-4 8h0.5 0.5 0.0625 0.4375 14.5v-3-1h-1v3h-4-1-1-6.3438-0.71875l3.3125-7-3.4375-7h0.90625 6.2812 4 2v2 1h1v-1-3h-14.5-0.4375-0.0625-0.5-0.5z" fill="currentColor"/>
 </g>
</svg>

<svg xmlns="http://www.w3.org/2000/svg" viewBox="0 0 24 24">
  <defs id="defs3051">
    <style type="text/css" id="current-color-scheme">
      .ColorScheme-Text {
        color:#dedede;
      }
      </style>
  </defs><g transform="translate(1,1)">
 <path 
     style="fill:currentColor;fill-opacity:1;stroke:none" 
     d="M 3 3 L 7 11 L 3 19 L 3.5 19 L 4 19 L 4.0625 19 L 4.5 19 L 19 19 L 19 16 L 19 15 L 18 15 L 18 18 L 14 18 L 13 18 L 12 18 L 5.65625 18 L 4.9375 18 L 8.25 11 L 4.8125 4 L 5.71875 4 L 12 4 L 16 4 L 18 4 L 18 6 L 18 7 L 19 7 L 19 6 L 19 3 L 4.5 3 L 4.0625 3 L 4 3 L 3.5 3 L 3 3 z "
	 class="ColorScheme-Text"
     />
</g></svg>
